!! 00049] TT[KA
!! NN
!!!OTL: Cai Cha
!!!ARE: Asia, China,ÿYunnan
!! Ethnic Group: Han
!! II, 31
!!!SCT: C1235
!!!YEM: Copyright 1995, estate of Helmut Schaffrath.
**kern
*ICvox
*Ivox
*M2/4
*k[]
*C:
{8cc
8cc
8cc
16a
16g
=1
8cc
16cc
16a
8cc
8dd
=2
2ee}
=3
{4ee
8gg
8ee
=4
16dd
16ee
16dd
16cc
8a
8g
=5
4.cc
8a}
=6
{8cc
8g
8ee
8gg
=7
8dd
8ee
8dd
8cc
=8
4.a
8g}
=9
{8cc
8a
8dd
8cc
=10
8a
16a
16b
8a
8g
=11
2a}
=12
{8cc
8a
8a
8g
=13
8cc
16cc
16a
8cc
8dd
=14
2ee}
=15
{8ee
8dd
8ee
16gg
16ee
=16
16dd
16ee
16dd
16cc
8a
8g
=17
4.cc
8a}
=18
{8cc
8g
8ee
8gg
=19
8dd
8ee
8dd
8cc
=20
4.a
8g}
=21
{8g
16a
16g
8.a
16g
=22
16dd
16ee
16dd
16cc
8a
8g
=23
2a}
=24
{8cc
8cc
8cc
16a
16g
=25
8cc
16cc
16a
8cc
8dd
=26
2ee}
=27
{4e
8ee
16gg
16ee
=28
16dd
16ee
16dd
16cc
8a
8g
=29
4cc
8cc
8a}
=30
{8cc
8a
8ee
8gg
=31
8dd
8ee
8dd
8cc
=32
4.a
8g}
=33
{8cc
8a
8dd
8cc
=34
16dd
16ee
16dd
16cc
8a
8g
=35
2a}
=36
{8cc
8a
8a
8g
=37
8cc
16cc
16a
8cc
8dd
=38
2ee}
=39
{4ee
8ee
16gg
16ee
=40
16.dd
32ee
16dd
16cc
8a
8g
=41
4cc
8cc
8a}
=42
{8cc
8a
8gg
8a
=43
8a
8ee
8dd
8cc
=44
4.a
8g}
=45
{8cc
8a
8dd
8cc
=46
8dd
16dd
16cc
8a
8g
=47
2a}
=48
{8cc
8a
8a
8g
=49
8cc
16cc
16a
8cc
8dd
=50
2ee}
=51
{4ee
8ee
16gg
16ee
=52
16.dd
32ee
16dd
16cc
8a
8g
=53
4cc
8cc
8a}
=54
{8cc
8a
8gg
8a
=55
8a
8ee
8dd
8cc
=56
4.a
8g}
=57
{4g
8a
8g
=58
16dd
16ee
16dd
16cc
8a
8g
=59
2a}
==
!!!AGN: Wuge, Huadeng. Xin minge
!! Besonders in Jiangsu verbreitet. Wird in der Lokaloper benutzt.
!!    Unter dem Titel "Cai Cai" findet man ca. 900 Aufnahmen.
!!    Cf. auch Nr. 130.
!!    Wenig Verzierungen.
!!!ONB: ESAC (Essen Associative Code) Database: CHINA
!!!AMT: simple duple
!!!AIN: vox
!!!EED: Helmut Schaffrath
!!!EEV: 1.0
*-
!!!OTL: Shjiapai
!!!ARE: Asia, China,ÿShanxi, Qitai
!! I, 335(1)
!!!SCT: C1441
!!!YEM: Copyright 1995, estate of Helmut Schaffrath.
**kern
*ICvox
*Ivox
*M2/4
*k[b-e-]
*B-:
{8r
16ddd
16fff
8bb-
16aa
16gg
=1
8gg
8dd
8fff
16ggg
16bbb-
=2
8ddd}
{16ddd
16fff
8bb-
16aa
16gg
=3
16ddd
16fff
8bb-
16aa
16gg}
{16dd
16ff
=4
8bb-
16aa
16gg
16ff
16gg
8dd
=5
8ddd
16ddd
16fff
8ggg
16ddd
16fff
=6
16.aa
32ccc
16gg
16ff
4dd}
=7
{8.bb-
16gg
8bb-
16bb-
16ccc
=8
16.ddd
32ccc
16ddd
16fff
16ggg
32ddd
32eee-
8ddd}
=9
{16ddd
8ccc
16ddd
8bbn
16ccc
16ddd
=10
16.gg
32aa
16gg
16ff
16gg
16dd
8ff}
=11
{8ff]
8ggg
8fff
16eeen
16eeen
=12
16.ddd
32fff
16ddd
16gg
16.bb-
32bb-
16bb-
16ccc}
=13
{16.ddd
32ccc
16ddd
16fff
16ggg
32ddd
32eee-
16ddd
16ccc
=14
16.aa
32ccc
16gg
16ff
4dd}
==
!!!AGN: Wuge, Yangge, Jinzhong yangge
!!!ONB: ESAC (Essen Associative Code) Database: HUANG
!!!AMT: simple duple
!!!AIN: vox
!!!EED: Helmut Schaffrath
!!!EEV: 1.0
*-
